src/assets/about/unityCard.svg

<svg width="270" height="84" viewBox="0 0 270 84" fill="none" xmlns="http://www.w3.org/2000/svg">
<g filter="url(#filter0_d_330_331)">
<rect x="5.5" y="0.345703" width="259" height="72.9327" rx="36.4664" fill="white"/>
</g>
<path d="M124.904 45.144C123.544 45.144 122.376 44.92 121.4 44.472C120.424 44.024 119.624 43.408 119 42.624C118.392 41.84 117.944 40.944 117.656 39.936C117.368 38.912 117.224 37.84 117.224 36.72V27.96H121.904V36.72C121.904 37.28 121.96 37.816 122.072 38.328C122.184 38.84 122.36 39.296 122.6 39.696C122.84 40.096 123.144 40.416 123.512 40.656C123.896 40.88 124.36 40.992 124.904 40.992C125.464 40.992 125.936 40.88 126.32 40.656C126.704 40.416 127.008 40.096 127.232 39.696C127.472 39.28 127.648 38.816 127.76 38.304C127.872 37.792 127.928 37.264 127.928 36.72V27.96H132.608V36.72C132.608 37.904 132.448 39.008 132.128 40.032C131.824 41.056 131.36 41.952 130.736 42.72C130.112 43.488 129.312 44.088 128.336 44.52C127.376 44.936 126.232 45.144 124.904 45.144ZM139.98 36.624V45H135.3V27.96H138.948L145.788 36.624V27.96H150.468V45H146.748L139.98 36.624ZM153.394 45V27.96H158.074V45H153.394ZM174.283 32.04H169.387V45H164.707V32.04H159.787V27.96H174.283V32.04ZM179.443 27.96L182.491 34.92L185.611 27.96H190.699L184.819 39.36V45H180.163V39.312L174.379 27.96H179.443Z" fill="black"/>
<path d="M68.5997 36.6264L77.5686 21.1394L81.9024 36.6264L77.5684 52.1097L68.5997 36.6264ZM64.2284 39.1414L73.1984 54.6259L57.5765 50.6238L46.2907 39.1414H64.2284ZM73.1965 18.6225L64.2284 34.1094H46.2907L57.5765 22.6263L73.1965 18.6225ZM86 31.3559L80.5284 11L60.1058 16.4554L57.0826 21.7705L50.9482 21.7265L36 36.6278L50.9482 51.5256H50.9488L57.0806 51.4802L60.1081 56.7953L80.5284 62.2497L85.9998 41.8977L82.8924 36.6266L85.9998 31.3563L86 31.3559Z" fill="#222C37"/>
<defs>
<filter id="filter0_d_330_331" x="0.5" y="0.345703" width="269" height="82.9326" filterUnits="userSpaceOnUse" color-interpolation-filters="sRGB">
<feFlood flood-opacity="0" result="BackgroundImageFix"/>
<feColorMatrix in="SourceAlpha" type="matrix" values="0 0 0 0 0 0 0 0 0 0 0 0 0 0 0 0 0 0 127 0" result="hardAlpha"/>
<feOffset dy="5"/>
<feGaussianBlur stdDeviation="2.5"/>
<feComposite in2="hardAlpha" operator="out"/>
<feColorMatrix type="matrix" values="0 0 0 0 0 0 0 0 0 0 0 0 0 0 0 0 0 0 0.25 0"/>
<feBlend mode="normal" in2="BackgroundImageFix" result="effect1_dropShadow_330_331"/>
<feBlend mode="normal" in="SourceGraphic" in2="effect1_dropShadow_330_331" result="shape"/>
</filter>
</defs>
</svg>

<svg xmlns="http://www.w3.org/2000/svg" width="270" height="84" fill="none"><g filter="url(#a)"><rect width="259" height="72.933" x="5.5" y=".346" fill="#fff" rx="36.466"/></g><path fill="#000" d="M124.904 45.144c-1.36 0-2.528-.224-3.504-.672-.976-.448-1.776-1.064-2.4-1.848a7.862 7.862 0 0 1-1.344-2.688 11.823 11.823 0 0 1-.432-3.216v-8.76h4.68v8.76c0 .56.056 1.096.168 1.608.112.512.288.968.528 1.368.24.4.544.72.912.96.384.224.848.336 1.392.336.56 0 1.032-.112 1.416-.336.384-.24.688-.56.912-.96.24-.416.416-.88.528-1.392.112-.512.168-1.04.168-1.584v-8.76h4.68v8.76c0 1.184-.16 2.288-.48 3.312-.304 1.024-.768 1.92-1.392 2.688-.624.768-1.424 1.368-2.4 1.8-.96.416-2.104.624-3.432.624Zm15.076-8.52V45h-4.68V27.96h3.648l6.84 8.664V27.96h4.68V45h-3.72l-6.768-8.376ZM153.394 45V27.96h4.68V45h-4.68Zm20.889-12.96h-4.896V45h-4.68V32.04h-4.92v-4.08h14.496v4.08Zm5.16-4.08 3.048 6.96 3.12-6.96h5.088l-5.88 11.4V45h-4.656v-5.688l-5.784-11.352h5.064Z"/><path fill="#222C37" d="m68.6 36.626 8.969-15.487 4.333 15.487-4.334 15.484L68.6 36.626Zm-4.372 2.515 8.97 15.485-15.621-4.002L46.29 39.14h17.937Zm8.969-20.518-8.969 15.486H46.291l11.286-11.483 15.62-4.004ZM86 31.355 80.528 11l-20.422 5.455-3.023 5.316-6.135-.044L36 36.627l14.948 14.899 6.133-.046 3.027 5.315 20.42 5.455L86 41.898l-3.108-5.271L86 31.357v-.001Z"/><defs><filter id="a" width="269" height="82.933" x=".5" y=".346" color-interpolation-filters="sRGB" filterUnits="userSpaceOnUse"><feFlood flood-opacity="0" result="BackgroundImageFix"/><feColorMatrix in="SourceAlpha" result="hardAlpha" values="0 0 0 0 0 0 0 0 0 0 0 0 0 0 0 0 0 0 127 0"/><feOffset dy="5"/><feGaussianBlur stdDeviation="2.5"/><feComposite in2="hardAlpha" operator="out"/><feColorMatrix values="0 0 0 0 0 0 0 0 0 0 0 0 0 0 0 0 0 0 0.25 0"/><feBlend in2="BackgroundImageFix" result="effect1_dropShadow_330_331"/><feBlend in="SourceGraphic" in2="effect1_dropShadow_330_331" result="shape"/></filter></defs></svg>
